icons/weapons/weapon.svg

<svg xmlns="http://www.w3.org/2000/svg" xmlns:xlink="http://www.w3.org/1999/xlink" width="128pt" height="90pt" viewBox="0 0 128 90" version="1.1">
<g id="surface1">
<path d="M 127.304688 25.265625 L 127.097656 27.144531 L 126.054688 28.816406 L 115.019531 36.75 L 113.976562 38.421875 L 113.769531 40.300781 L 127.929688 81.4375 L 127.71875 83.109375 L 126.261719 84.152344 L 93.570312 90 L 91.695312 89.582031 L 90.652344 88.121094 L 81.492188 55.335938 C 80.519531 51.996094 79.339844 50.464844 77.953125 50.742188 L 64.417969 52.414062 C 54.976562 52.414062 48.105469 49.210938 43.800781 42.808594 C 41.023438 38.910156 39.429688 34.316406 39.011719 29.027344 C 39.011719 27.773438 37.414062 27.144531 34.222656 27.144531 L 7.566406 27.144531 L 5.902344 26.519531 L 5.277344 24.847656 L 5.277344 18.585938 L 4.445312 16.914062 L 2.988281 16.078125 L 2.363281 16.078125 L 0.695312 15.453125 L 0.0703125 13.78125 L 0.0703125 2.296875 L 0.695312 0.625 L 2.363281 0 L 116.890625 0 L 118.765625 0.625 L 120.015625 2.296875 L 127.304688 25.265625 M 68.996094 27.144531 C 69.832031 32.992188 69.207031 37.585938 67.125 40.929688 L 63.582031 43.851562 L 60.25 43.644531 L 61.5 41.347656 C 62.335938 39.535156 62.679688 37.585938 62.542969 35.5 C 62.402344 33.550781 61.015625 30.765625 58.378906 27.144531 L 50.046875 27.144531 L 47.757812 27.5625 L 46.714844 29.234375 C 46.992188 35.359375 48.660156 40.023438 51.714844 43.226562 C 54.351562 45.871094 57.753906 47.191406 61.917969 47.191406 L 68.996094 46.566406 L 75.660156 44.894531 L 77.117188 42.390625 L 77.328125 40.71875 L 74.203125 29.441406 L 72.953125 27.773438 L 71.078125 27.144531 L 68.996094 27.144531 "/>
</g>
</svg>

<svg xmlns="http://www.w3.org/2000/svg" width="128pt" height="120" viewBox="0 0 128 90"><path d="m127.305 25.266-.207 1.879-1.043 1.671-11.035 7.934-1.043 1.672-.207 1.879 14.16 41.137-.211 1.671-1.457 1.043L93.57 90l-1.875-.418-1.043-1.46-9.16-32.786q-1.458-5.01-3.539-4.594l-13.535 1.672q-14.161-.001-20.617-9.605c-2.778-3.899-4.371-8.493-4.79-13.782q0-1.881-4.788-1.882H7.566l-1.664-.625-.625-1.672v-6.262l-.832-1.672-1.457-.836h-.625l-1.668-.625-.625-1.672V2.297L.695.625 2.363 0h114.528l1.875.625 1.25 1.672zm-58.309 1.879q1.253 8.769-1.871 13.785l-3.543 2.922-3.332-.207 1.25-2.297c.836-1.813 1.18-3.762 1.043-5.848q-.21-2.924-4.164-8.355h-8.332l-2.29.418-1.042 1.671q.416 9.188 5 13.993 3.956 3.965 10.203 3.964l7.078-.625 6.664-1.671 1.457-2.504.211-1.672-3.125-11.278-1.25-1.668-1.875-.628z"/></svg>
